src/public/img/statistics/projects.svg

<svg width="48" height="48" viewBox="0 0 48 48" fill="none" xmlns="http://www.w3.org/2000/svg">
<path fill-rule="evenodd" clip-rule="evenodd" d="M8.7002 9.59922C8.7002 9.10217 9.10315 8.69922 9.6002 8.69922H33.2998V18.8992H9.6002C9.10314 18.8992 8.7002 18.4963 8.7002 17.9992V9.59922ZM36.2998 18.8992V8.69922H39.6002C40.0973 8.69922 40.5002 9.10215 40.5002 9.59922V17.9992C40.5002 18.4963 40.0973 18.8992 39.6002 18.8992H36.2998ZM9.6002 5.69922C7.4463 5.69922 5.7002 7.44532 5.7002 9.59922V17.9992C5.7002 20.1531 7.44626 21.8992 9.6002 21.8992H39.6002C41.7542 21.8992 43.5002 20.1531 43.5002 17.9992V9.59922C43.5002 7.44534 41.7542 5.69922 39.6002 5.69922H9.6002ZM8.7002 31.1988C8.7002 30.7018 9.10313 30.2988 9.6002 30.2988H33.2998V40.4988H9.6002C9.10312 40.4988 8.7002 40.0959 8.7002 39.5988V31.1988ZM36.2998 40.4988H39.6002C40.0973 40.4988 40.5002 40.0959 40.5002 39.5988V31.1988C40.5002 30.7017 40.0973 30.2988 39.6002 30.2988H36.2998V40.4988ZM9.6002 27.2988C7.44632 27.2988 5.7002 29.0449 5.7002 31.1988V39.5988C5.7002 41.7528 7.44628 43.4988 9.6002 43.4988H39.6002C41.7541 43.4988 43.5002 41.7528 43.5002 39.5988V31.1988C43.5002 29.0449 41.7541 27.2988 39.6002 27.2988H9.6002Z" fill="url(#paint0_linear_3970_21872)"/>
<defs>
<linearGradient id="paint0_linear_3970_21872" x1="24.6002" y1="5.69922" x2="24.6002" y2="43.4988" gradientUnits="userSpaceOnUse">
<stop stop-color="#F65128"/>
<stop offset="1" stop-color="#F65128" stop-opacity="0.08"/>
</linearGradient>
</defs>
</svg>

<svg xmlns="http://www.w3.org/2000/svg" width="48" height="48" fill="none">
  <path fill="url(#a)" fill-rule="evenodd" d="M8.7 9.6a.9.9 0 0 1 .9-.9h23.7v10.2H9.6a.9.9 0 0 1-.9-.9V9.6Zm27.6 9.3V8.7h3.3a.9.9 0 0 1 .9.9V18a.9.9 0 0 1-.9.9h-3.3ZM9.6 5.7a3.9 3.9 0 0 0-3.9 3.9V18a3.9 3.9 0 0 0 3.9 3.9h30a3.9 3.9 0 0 0 3.9-3.9V9.6a3.9 3.9 0 0 0-3.9-3.9h-30Zm-.9 25.499a.9.9 0 0 1 .9-.9h23.7v10.2H9.6a.9.9 0 0 1-.9-.9v-8.4Zm27.6 9.3h3.3a.9.9 0 0 0 .9-.9v-8.4a.9.9 0 0 0-.9-.9h-3.3v10.2Zm-26.7-13.2a3.9 3.9 0 0 0-3.9 3.9v8.4a3.9 3.9 0 0 0 3.9 3.9h30a3.9 3.9 0 0 0 3.9-3.9v-8.4a3.9 3.9 0 0 0-3.9-3.9h-30Z" clip-rule="evenodd"/>
  <defs>
    <linearGradient id="a" x1="24.6" x2="24.6" y1="5.699" y2="43.499" gradientUnits="userSpaceOnUse">
      <stop stop-color="#F65128"/>
      <stop offset="1" stop-color="#F65128" stop-opacity=".08"/>
    </linearGradient>
  </defs>
</svg>
